X:7659
T:Trip It Along
O:england
B:Joyce, P. W.; "Old Irish Folk Music and Songs"
R:song air/jig
M:6/8
K:G
D2 G G2 A|B2 d cAG|F2 D DED|F3 FED|
DGG G2 A|BAG ABc|d2 B cAF|G3 G3||
g2 d def|g2 a bag|f2 d def|f2 g afd|
g2 d def|g2 a bag|fed cAF|G3 G3|
g2 d def|g2 a bag|f2 d ded|f2 g afd|
g>fg/a/ bag|agf g2 e|fed cAF|G3 G3||


